X: 33726
T: Rathlin Island
R: reel
M: 4/4
K: Adorian
|:A3B EGBG|AGAB deed|A2 AB GABd|
[1 egdB BAAG:|2 egdB BAA2||
|:e2 dB eAAB|e2 dB AGBd|e2 dB eAAB|
[1 dged BAA2:|2 dged BAAG||

